svgs/light/square-poll-horizontal.svg

<svg xmlns="http://www.w3.org/2000/svg" viewBox="0 0 448 512"><!--! Font Awesome Pro 6.4.0 by @fontawesome - https://fontawesome.com License - https://fontawesome.com/license (Commercial License) Copyright 2023 Fonticons, Inc. --><path d="M416 96c0-17.7-14.3-32-32-32L64 64C46.3 64 32 78.3 32 96l0 320c0 17.7 14.3 32 32 32l320 0c17.7 0 32-14.3 32-32l0-320zM384 32c35.3 0 64 28.7 64 64l0 320c0 35.3-28.7 64-64 64L64 480c-35.3 0-64-28.7-64-64L0 96C0 60.7 28.7 32 64 32l320 0zM256 160c0 8.8-7.2 16-16 16l-128 0c-8.8 0-16-7.2-16-16s7.2-16 16-16l128 0c8.8 0 16 7.2 16 16zm80 80c8.8 0 16 7.2 16 16s-7.2 16-16 16l-224 0c-8.8 0-16-7.2-16-16s7.2-16 16-16l224 0zM192 352c0 8.8-7.2 16-16 16l-64 0c-8.8 0-16-7.2-16-16s7.2-16 16-16l64 0c8.8 0 16 7.2 16 16z"/></svg>

<svg xmlns="http://www.w3.org/2000/svg" viewBox="0 0 448 512"><!--! Font Awesome Pro 6.3.0 by @fontawesome - https://fontawesome.com License - https://fontawesome.com/license (Commercial License) Copyright 2023 Fonticons, Inc. --><path d="M240 176H112C103.2 176 96 168.8 96 160C96 151.2 103.2 144 112 144H240C248.8 144 256 151.2 256 160C256 168.8 248.8 176 240 176zM336 240C344.8 240 352 247.2 352 256C352 264.8 344.8 272 336 272H112C103.2 272 96 264.8 96 256C96 247.2 103.2 240 112 240H336zM176 368H112C103.2 368 96 360.8 96 352C96 343.2 103.2 336 112 336H176C184.8 336 192 343.2 192 352C192 360.8 184.8 368 176 368zM384 32C419.3 32 448 60.65 448 96V416C448 451.3 419.3 480 384 480H64C28.65 480 0 451.3 0 416V96C0 60.65 28.65 32 64 32H384zM384 64H64C46.33 64 32 78.33 32 96V416C32 433.7 46.33 448 64 448H384C401.7 448 416 433.7 416 416V96C416 78.33 401.7 64 384 64z"/></svg>
